icons/attachment-16.svg

<svg width="16" height="16" viewBox="0 0 16 16" fill="none" xmlns="http://www.w3.org/2000/svg">
<path fill-rule="evenodd" clip-rule="evenodd" d="M7.25 1.5C6.78469 1.5 6.33837 1.68485 6.0094 2.01383C5.6828 2.34043 5.5 2.78563 5.5 3.25431L5.5 11.5C5.5 12.2974 5.81675 13.0621 6.38057 13.6259C6.94302 14.1883 7.70069 14.5 8.5 14.5C9.30206 14.5 10.0718 14.1864 10.6324 13.6259C11.1915 13.0667 11.5 12.304 11.5 11.5V3.75C11.5 3.33579 11.8358 3 12.25 3C12.6642 3 13 3.33579 13 3.75V11.5C13 12.6885 12.5428 13.8368 11.693 14.6865C10.8446 15.535 9.6905 16 8.5 16C7.30676 16 6.16641 15.533 5.31991 14.6865C4.47479 13.8414 4 12.6952 4 11.5L4 3.25431C4 2.39463 4.33604 1.56586 4.94874 0.953166C5.55907 0.342839 6.38694 0 7.25 0C8.11313 0 8.94076 0.34289 9.55103 0.953166C10.1613 1.56347 10.5042 2.39121 10.5042 3.25431L10.5 11.5C10.5 11.5001 10.5 11.4999 10.5 11.5C10.4999 12.0216 10.2996 12.5383 9.91778 12.9202C9.53434 13.3036 9.01946 13.5 8.5 13.5C7.97794 13.5 7.46798 13.3018 7.0863 12.9202C6.70886 12.5427 6.49989 12.0282 6.49989 11.5V3.75C6.49989 3.33578 6.83567 3 7.24989 3C7.6641 3 7.99989 3.33578 7.99989 3.75V11.5C7.99989 11.636 8.05476 11.7673 8.14697 11.8595C8.23494 11.9475 8.35788 12 8.5 12C8.64473 12 8.77091 11.9457 8.85712 11.8595C8.94484 11.7718 9 11.6425 9 11.5L9.0042 3.25431C9.0042 3.25418 9.0042 3.25444 9.0042 3.25431C9.0041 2.78918 8.81928 2.34273 8.49037 2.01383C8.16135 1.6848 7.71524 1.5 7.25 1.5Z" fill="black"/>
</svg>

<svg xmlns="http://www.w3.org/2000/svg" width="16" height="16" viewBox="0 0 16 16"><path fill-rule="evenodd" d="M7.25 1.5A1.75 1.75 0 005.5 3.254V11.5c0 .797.317 1.562.88 2.126.563.562 1.32.874 2.12.874.802 0 1.572-.314 2.132-.874s.868-1.322.868-2.126V3.75a.75.75 0 011.5 0v7.75a4.494 4.494 0 01-1.307 3.187A4.515 4.515 0 018.5 16a4.485 4.485 0 01-3.18-1.313A4.506 4.506 0 014 11.5V3.254a3.25 3.25 0 015.551-2.3c.61.61.953 1.437.953 2.3L10.5 11.5c0 .522-.2 1.038-.582 1.42a2 2 0 01-1.418.58 1.991 1.991 0 01-2-2V3.75a.75.75 0 111.5 0v7.75a.491.491 0 00.5.5c.145 0 .27-.054.357-.14A.509.509 0 009 11.5l.004-8.246A1.755 1.755 0 007.25 1.5z"/></svg>
